X:1
T:Honorable Seymour Egerton's
T:Honorable Seymour Egerton's
T:Alexander Walker
C:Alexander Walker
L:1/8
M:2/2
K:F
V:1 treble 
V:1
 A | C>F F/F/F AFcF | D>G G/G/G BGdG | CF F/F/F AFcF | Bdce fFF :| f | afcf Afcf | bgdg Bgdg | %8
 afcf Afcf | BdGc AFFf | afcf Afcf | bgdg Bgdg | bage fedc | dfeg f2 f || %14

